packages/foundations/assets/icons/functional/images/environment/sun_20.svg

<svg width="20" height="20" viewBox="0 0 20 20" fill="none" xmlns="http://www.w3.org/2000/svg">
<g clip-path="url(#clip0_185_856)">
<path fill-rule="evenodd" clip-rule="evenodd" d="M10 15C10.5523 15 11 15.4477 11 16V17C11 17.5523 10.5523 18 10 18C9.44772 18 9 17.5523 9 17V16C9 15.4477 9.44772 15 10 15ZM14.9497 13.5355L15.6569 14.2426C16.0474 14.6332 16.0474 15.2663 15.6569 15.6569C15.2663 16.0474 14.6332 16.0474 14.2426 15.6569L13.5355 14.9497C13.145 14.5592 13.145 13.9261 13.5355 13.5355C13.9261 13.145 14.5592 13.145 14.9497 13.5355ZM6.46447 13.5355C6.85499 13.9261 6.85499 14.5592 6.46447 14.9497L5.75736 15.6569C5.60716 15.8071 5.42106 15.8995 5.22668 15.9341L5.10928 15.948H4.99122C4.75532 15.9341 4.52339 15.8371 4.34315 15.6569C3.95262 15.2663 3.95262 14.6332 4.34315 14.2426L5.05025 13.5355C5.44078 13.145 6.07394 13.145 6.46447 13.5355ZM10 6C12.2091 6 14 7.79086 14 10C14 12.2091 12.2091 14 10 14C7.79086 14 6 12.2091 6 10C6 7.79086 7.79086 6 10 6ZM10 8C8.89543 8 8 8.89543 8 10C8 11.1046 8.89543 12 10 12C11.1046 12 12 11.1046 12 10C12 8.89543 11.1046 8 10 8ZM17 9C17.5523 9 18 9.44772 18 10C18 10.5523 17.5523 11 17 11H16C15.4477 11 15 10.5523 15 10C15 9.44772 15.4477 9 16 9H17ZM4 9C4.55228 9 5 9.44772 5 10C5 10.5523 4.55228 11 4 11H3C2.44772 11 2 10.5523 2 10C2 9.44772 2.44772 9 3 9H4ZM5.75736 4.34315L6.46447 5.05025C6.85499 5.44078 6.85499 6.07394 6.46447 6.46447C6.07394 6.85499 5.44078 6.85499 5.05025 6.46447L4.34315 5.75736C3.95262 5.36684 3.95262 4.73367 4.34315 4.34315C4.73367 3.95262 5.36684 3.95262 5.75736 4.34315ZM15.6569 4.34315C16.0474 4.73367 16.0474 5.36684 15.6569 5.75736L14.9497 6.46447C14.7995 6.61467 14.6135 6.7071 14.4191 6.74176L14.3017 6.75563H14.1836C13.9477 6.74176 13.7158 6.64471 13.5355 6.46447C13.145 6.07394 13.145 5.44078 13.5355 5.05025L14.2426 4.34315C14.6332 3.95262 15.2663 3.95262 15.6569 4.34315ZM10 2C10.5523 2 11 2.44772 11 3V4C11 4.55228 10.5523 5 10 5C9.44772 5 9 4.55228 9 4V3C9 2.44772 9.44772 2 10 2Z" fill="#1A1C1F"/>
</g>
<defs>
<clipPath id="clip0_185_856">
<rect width="20" height="20" fill="white"/>
</clipPath>
</defs>
</svg>

<svg xmlns="http://www.w3.org/2000/svg" width="20" height="20" fill="none"><g clip-path="url(#a)"><path fill="#1A1C1F" fill-rule="evenodd" d="M10 15a1 1 0 0 1 1 1v1a1 1 0 1 1-2 0v-1a1 1 0 0 1 1-1m4.95-1.464.707.707a1 1 0 0 1-1.414 1.414l-.707-.707a1 1 0 0 1 1.414-1.414m-8.486 0a1 1 0 0 1 0 1.414l-.707.707a1 1 0 0 1-.53.277l-.118.014h-.118a1 1 0 0 1-.648-1.705l.707-.707a1 1 0 0 1 1.414 0M10 6a4 4 0 1 1 0 8 4 4 0 0 1 0-8m0 2a2 2 0 1 0 0 4 2 2 0 0 0 0-4m7 1a1 1 0 1 1 0 2h-1a1 1 0 1 1 0-2zM4 9a1 1 0 0 1 0 2H3a1 1 0 1 1 0-2zm1.757-4.657.707.707A1 1 0 0 1 5.05 6.464l-.707-.707a1 1 0 1 1 1.414-1.414m9.9 0a1 1 0 0 1 0 1.414l-.707.707a1 1 0 0 1-.53.278l-.118.014h-.118a1 1 0 0 1-.648-1.705l.707-.708a1 1 0 0 1 1.414 0M10 2a1 1 0 0 1 1 1v1a1 1 0 1 1-2 0V3a1 1 0 0 1 1-1" clip-rule="evenodd"/></g><defs><clipPath id="a"><path fill="#fff" d="M0 0h20v20H0z"/></clipPath></defs></svg>
